X:1
T:Title
%%score { ( 1 3 ) | 2 }
L:1/8
Q:1/4=95
M:6/8
K:D
V:1 treble nm="Grand Piano"
V:3 treble 
V:2 bass 
V:1
 [Fd]2 [GB] [FA]2 F | A>BA [A,DF][K:bass][F,D][G,CE] |[M:5/8] [F,D]-[F,D]- [F,D]3 | %3
w: D.~B.~Towner * * *|||
[M:1/8][K:treble] [A,DF]/[A,DF]/ |[M:3/4] [CE]2 [EG] F2 A/A/ |[M:5/8] ^G2 B A2 |[M:1/8] d | %7
w: ||||
[M:3/4] c3 B3 | A6 | [Fd]2 [GB] [FA]2 F | A>B A[A,DF][K:bass] [F,D][G,CE] | %11
w: ||||
 [F,D]4- [F,D][K:treble][A,DF]/[A,DF]/ | [CE]2 [EG] F2 A/A/ | ^G2 B A2 d/d/ | c3 B3 | A6 | d3 A3 | %17
w: ||||||
 [GB]6 | e3 B3 | [Ac]6 | f3 c3 | d3 d2 B | AB A[EG] [DF][CE] | [DF]3 [FA]3 | d3 A3 | [GB]6 | %26
w: |||||||||
 e3 B3 | [Ac]6 | f3 c3 | d3 d2 B | A>B A[A,DF][K:bass] [F,D][G,CE] | [F,D]6 |] %32
w: ||||||
V:2
 [D,D]2 [D,D] [D,D]2 [D,D] | [A,DF]>[A,DG][A,DF][K:bass] A,,A,,A,, |[M:5/8] D,-D,- D,3 | %3
[M:1/8] D,/D,/ |[M:3/4] [A,,A,]2 [A,,A,] [D,A,D]2 [F,D]/[F,D]/ |[M:5/8] [E,DE]2 [E,DE] [A,CE]2 | %6
[M:1/8] [D,D]/[D,D]/ |[M:3/4] [E,A,E]2 [E,A,][E,D] [E,D][E,D] | [A,C]2 [A,C] [A,C]3 | %9
 [D,D]2 [D,D] [D,D]2 [D,D] | [A,DF]>[A,DG] [A,DF][K:bass]A,, A,,A,, | D,4- D,D,/D,/ | %12
 [A,,A,]2 [A,,A,] [D,A,D]2 [F,D]/[F,D]/ | [E,DE]2 [E,DE] [A,CE]2 [D,D] | [E,A,E]2 [E,A,]E, E,E, | %15
 A,,2 A,, A,,3 | F3 F3 | G,2 G, G,3 | ^G3 G3 | A,2 A, A,3 | [^A,EF]3 [A,EF]3 | %21
 [B,DF]3 [G,B,G]2 [G,DG] | [A,DF][A,DG] [A,DF][K:bass][A,,A,] [A,,A,][A,,A,] | [D,A,]3 [D,D]3 | %24
 F3 F3 | G,2 G, G,3 | ^G3 G3 | A,2 A, A,3 | [^A,EF]3 [A,EF]3 | [B,DF]3 [G,B,G]2 [G,DG] | %30
 [A,DF]>[A,DG] [A,DF][K:bass]A,, A,,A,, | D,6 |] %32
V:3
 x6 | x4[K:bass] x2 |[M:5/8] x5 |[M:1/8][K:treble] x |[M:3/4] x6 |[M:5/8] x5 |[M:1/8] F/F/ | %7
[M:3/4] z2 E^G GG | z2 E E3 | x6 | x4[K:bass] x2 | x5[K:treble] x | x6 | z2 z2 z F | %14
 z2 E[D^G] [DG][DG] | C2 [CE] [CE]3 | x6 | D2 D D3 | x6 | E2 E E3 | x6 | x6 | x6 | x6 | x6 | %25
 D2 D D3 | x6 | E2 E E3 | x6 | x6 | x4[K:bass] x2 | x6 |] %32

